X:20
T:Munlochy Bridge
R:strathspey
O:Scotland
Z:id:hn-strathspey-20
M:C
L:1/8
K:G
g | e>d B>A B<G G>B | d>e d<B d2 d>g | e>d B>A B<G G>f | g>e f<d e2 e :| 
|: d>e g>a b>g a<b | d>e d<B d2 d<g |1 d>e g>a b>g a<b | a>g e<d e2 e<g :|
[2 e>d B>A B<G G>f | g>e f<d e2 e ||

